X: 4
T: Paddy Fahey's
R: reel
M: 4/4
L: 1/8
K: Gmaj
g2 dc BGDE|=F2 cF dFcF|DGBd g3 a gfde fgaf|
gfdc BGDE|=F2 cF dFcF|DGBd g2 dc BdcA BG G2|
g/a/g dc BGDE|=F2 cF dFcF|DGBd g3 a gfde fgaf|
gfdc BGDE|=F2 cF dFcF|DGBd g2 dc|BdcA BGBd||
g2 fa gbfa|g3 a gfde|fd (3e/d/c/d adeg fgag fdef|
g2 fa gbfa|g3 a gfde|fd e/d/c/d adeg|fdcA G2 Bd3/2|
g2 fa gbfa|g3 a gfde|fd (3e/d/c/d adeg fgag fdef|
g2 fa gbfa|g3 a gfde|fd e/d/c/d adeg|fdcA DGBd||

composer: Paddy Fahey
